flaticon/constructions/roof.svg

<svg xmlns="http://www.w3.org/2000/svg" width="32" height="32" viewBox="0 0 24 24">
    <path d="M 23.902344 0.308594 C 23.824219 0.1875 23.703125 0.144531 23.582031 0.144531 L 10.585938 0.144531 C 10.550781 0.144531 10.515625 0.148438 10.480469 0.15625 C 10.449219 0.152344 10.417969 0.144531 10.386719 0.144531 L 3.847656 0.144531 C 3.648438 0.144531 3.484375 0.265625 3.445312 0.425781 L 2.964844 2.753906 C 2.953125 2.816406 2.945312 2.878906 2.933594 2.941406 L 2.003906 7.445312 C 1.984375 7.527344 1.972656 7.609375 1.960938 7.6875 L 1.0625 12.105469 C 1.050781 12.128906 1.042969 12.15625 1.039062 12.179688 L 0.078125 16.914062 C -0.125 17.875 0.078125 18.839844 0.597656 19.640625 C 1.121094 20.445312 1.921875 21.003906 2.882812 21.164062 C 3.125 21.207031 3.367188 21.246094 3.605469 21.246094 C 4.328125 21.246094 5.011719 21.046875 5.570312 20.644531 C 5.902344 20.429688 6.1875 20.167969 6.425781 19.871094 C 6.53125 20.222656 6.6875 20.5625 6.894531 20.886719 C 7.417969 21.6875 8.21875 22.25 9.183594 22.449219 C 9.421875 22.488281 9.664062 22.53125 9.90625 22.53125 C 10.585938 22.53125 11.269531 22.328125 11.910156 21.929688 C 12.222656 21.726562 12.496094 21.480469 12.726562 21.199219 C 13.078125 22.457031 14.101562 23.492188 15.480469 23.773438 C 15.722656 23.8125 15.960938 23.855469 16.203125 23.855469 C 16.882812 23.855469 17.566406 23.652344 18.246094 23.210938 C 19.050781 22.691406 19.613281 21.886719 19.8125 20.925781 L 20.773438 16.230469 C 20.785156 16.171875 20.78125 16.113281 20.769531 16.058594 L 21.578125 12.085938 C 21.644531 11.910156 21.699219 11.726562 21.738281 11.539062 L 22.699219 6.84375 C 22.703125 6.824219 22.707031 6.800781 22.707031 6.777344 L 23.625 2.230469 L 23.625 2.191406 C 23.628906 2.15625 23.628906 2.125 23.628906 2.09375 L 23.984375 0.667969 C 24.023438 0.546875 23.984375 0.425781 23.902344 0.308594 Z M 5.25 15.648438 C 5.226562 15.652344 5.203125 15.660156 5.179688 15.664062 C 5.15625 15.667969 5.136719 15.671875 5.113281 15.675781 C 5.085938 15.683594 5.054688 15.6875 5.023438 15.695312 C 5.011719 15.695312 4.996094 15.699219 4.984375 15.699219 C 4.667969 15.746094 4.339844 15.738281 4.007812 15.671875 C 3.109375 15.503906 2.40625 14.90625 2.035156 14.128906 C 1.792969 13.597656 1.710938 12.976562 1.839844 12.339844 C 1.851562 12.28125 1.847656 12.222656 1.835938 12.171875 L 2.324219 9.855469 C 2.804688 10.816406 3.6875 11.539062 4.851562 11.78125 C 5.921875 11.976562 7.03125 11.707031 7.828125 11.039062 L 7.371094 13.304688 C 7.335938 13.351562 7.308594 13.40625 7.296875 13.464844 L 7.207031 13.902344 C 6.878906 14.765625 6.15625 15.402344 5.296875 15.632812 C 5.28125 15.640625 5.265625 15.644531 5.25 15.648438 Z M 20.65625 8.449219 C 20.21875 8.722656 19.726562 8.882812 19.226562 8.910156 C 19.011719 8.914062 18.789062 8.898438 18.570312 8.851562 C 17.195312 8.5625 16.214844 7.328125 16.265625 5.972656 C 16.269531 5.953125 16.269531 5.929688 16.273438 5.910156 L 16.363281 5.441406 C 16.367188 5.421875 16.367188 5.402344 16.367188 5.382812 L 17.003906 2.914062 C 17.023438 2.957031 17.046875 3.007812 17.078125 3.066406 C 17.105469 3.125 17.132812 3.179688 17.164062 3.234375 C 17.605469 4.117188 18.410156 4.71875 19.332031 4.921875 C 19.386719 4.925781 19.4375 4.933594 19.492188 4.941406 C 20.375 5.105469 21.292969 4.9375 22.058594 4.480469 C 22.179688 4.4375 22.257812 4.359375 22.378906 4.277344 L 21.898438 6.683594 C 21.738281 7.40625 21.296875 8.046875 20.65625 8.449219 Z M 12.429688 16.554688 C 11.789062 16.953125 11.027344 17.113281 10.304688 16.953125 C 8.972656 16.671875 8.039062 15.503906 8.039062 14.199219 C 8.097656 14.039062 8.144531 13.875 8.179688 13.703125 L 8.675781 11.273438 C 9.164062 12.148438 10.023438 12.832031 11.109375 13.101562 C 12.191406 13.304688 13.3125 13.023438 14.117188 12.339844 L 13.59375 14.828125 C 13.476562 15.355469 13.230469 15.84375 12.855469 16.222656 C 12.726562 16.34375 12.585938 16.457031 12.429688 16.554688 Z M 14.558594 10.054688 C 14.371094 10.929688 13.804688 11.636719 13.0625 12.015625 C 12.535156 12.261719 11.925781 12.351562 11.308594 12.21875 C 9.976562 11.941406 9.042969 10.769531 9.042969 9.460938 L 9.140625 8.972656 C 9.144531 8.949219 9.148438 8.925781 9.148438 8.902344 L 9.605469 6.484375 C 10.09375 7.386719 10.964844 8.09375 12.070312 8.328125 C 13.152344 8.53125 14.277344 8.25 15.078125 7.566406 Z M 15.558594 5.359375 L 15.496094 5.6875 C 15.027344 6.964844 13.667969 7.78125 12.269531 7.488281 C 10.878906 7.195312 9.890625 5.933594 9.972656 4.558594 L 10.023438 4.277344 L 10.023438 4.238281 L 10.539062 1.667969 C 11.027344 2.632812 11.929688 3.359375 13.035156 3.597656 C 13.273438 3.636719 13.472656 3.675781 13.714844 3.675781 C 14.609375 3.675781 15.496094 3.335938 16.195312 2.773438 Z M 9.296875 3.898438 C 9.28125 3.929688 9.269531 3.964844 9.261719 3.996094 L 9.195312 4.335938 C 9.003906 4.949219 8.625 5.488281 8.058594 5.84375 C 7.417969 6.242188 6.65625 6.402344 5.933594 6.242188 C 5.242188 6.09375 4.640625 5.695312 4.238281 5.15625 C 3.792969 4.539062 3.597656 3.753906 3.765625 2.953125 L 4.089844 1.34375 C 4.691406 1.949219 5.660156 2.554688 6.734375 2.554688 C 7.632812 2.554688 8.824219 2.222656 9.726562 1.667969 Z M 4.601562 6.585938 C 4.949219 6.808594 5.34375 6.980469 5.773438 7.085938 C 6.855469 7.285156 7.980469 7.007812 8.78125 6.324219 L 8.257812 8.8125 C 8.097656 9.53125 7.699219 10.175781 7.054688 10.574219 C 6.601562 10.859375 6.085938 11.023438 5.570312 11.035156 C 5.386719 11.035156 5.199219 11.015625 5.011719 10.976562 C 3.484375 10.65625 2.484375 9.171875 2.804688 7.648438 C 2.8125 7.589844 2.8125 7.53125 2.800781 7.480469 L 3.285156 5.160156 C 3.585938 5.746094 4.042969 6.238281 4.601562 6.585938 Z M 19.894531 16.113281 C 19.730469 16.832031 19.332031 17.476562 18.6875 17.875 C 18.234375 18.160156 17.722656 18.324219 17.203125 18.335938 C 17.019531 18.335938 16.832031 18.316406 16.644531 18.277344 C 15.214844 17.976562 14.246094 16.65625 14.390625 15.238281 C 14.425781 15.132812 14.453125 15.019531 14.476562 14.910156 L 14.957031 12.550781 C 15 12.628906 15.058594 12.703125 15.117188 12.824219 C 15.640625 13.625 16.441406 14.1875 17.40625 14.386719 C 18.34375 14.5625 19.316406 14.371094 20.078125 13.875 C 20.109375 13.859375 20.140625 13.84375 20.171875 13.824219 C 20.253906 13.773438 20.332031 13.71875 20.40625 13.660156 Z M 20.894531 11.339844 C 20.667969 12.421875 19.851562 13.238281 18.855469 13.507812 C 18.839844 13.511719 18.824219 13.515625 18.808594 13.519531 C 18.785156 13.527344 18.761719 13.53125 18.738281 13.539062 C 18.714844 13.542969 18.695312 13.546875 18.671875 13.550781 C 18.644531 13.558594 18.613281 13.5625 18.582031 13.566406 C 18.570312 13.570312 18.554688 13.570312 18.542969 13.574219 C 18.226562 13.621094 17.898438 13.613281 17.566406 13.542969 C 17.253906 13.476562 16.957031 13.359375 16.6875 13.199219 C 16.683594 13.199219 16.679688 13.195312 16.675781 13.195312 C 16.644531 13.175781 16.617188 13.15625 16.585938 13.136719 C 16.578125 13.132812 16.566406 13.125 16.554688 13.117188 C 16.527344 13.097656 16.5 13.078125 16.472656 13.058594 C 16.464844 13.054688 16.453125 13.046875 16.445312 13.039062 C 16.195312 12.851562 15.976562 12.621094 15.800781 12.339844 C 15.480469 11.828125 15.316406 11.242188 15.34375 10.65625 L 15.410156 10.324219 C 15.421875 10.289062 15.429688 10.253906 15.441406 10.214844 L 15.910156 7.78125 C 16.398438 8.714844 17.265625 9.378906 18.410156 9.652344 C 19.492188 9.855469 20.613281 9.574219 21.417969 8.890625 L 20.921875 11.261719 C 20.910156 11.285156 20.902344 11.3125 20.894531 11.339844 Z M 22.847656 1.953125 C 22.835938 1.976562 22.828125 2.003906 22.820312 2.03125 L 22.820312 2.070312 C 22.660156 2.792969 22.21875 3.394531 21.617188 3.757812 C 20.976562 4.15625 20.214844 4.277344 19.53125 4.117188 C 18.808594 3.996094 18.246094 3.554688 17.886719 2.875 C 17.566406 2.3125 17.445312 1.628906 17.527344 0.949219 L 23.0625 0.949219 Z M 16.644531 0.949219 C 16.082031 2.230469 14.558594 3.113281 13.195312 2.835938 C 12.191406 2.632812 11.386719 1.910156 11.109375 0.949219 Z M 9.382812 0.949219 C 8.621094 1.429688 7.539062 1.75 6.734375 1.75 C 6.054688 1.75 5.332031 1.390625 4.851562 0.949219 Z M 5.128906 20.003906 C 4.488281 20.402344 3.726562 20.5625 3.003906 20.402344 C 2.28125 20.242188 1.640625 19.84375 1.238281 19.199219 C 0.839844 18.558594 0.679688 17.796875 0.839844 17.074219 L 1.359375 14.585938 C 1.414062 14.691406 1.472656 14.789062 1.535156 14.886719 C 1.542969 14.898438 1.550781 14.910156 1.558594 14.921875 C 1.558594 14.925781 1.5625 14.929688 1.566406 14.929688 C 1.816406 15.3125 2.140625 15.648438 2.527344 15.910156 C 2.910156 16.183594 3.355469 16.390625 3.847656 16.511719 C 4.558594 16.644531 5.289062 16.566406 5.933594 16.304688 C 6.167969 16.222656 6.394531 16.117188 6.613281 15.992188 C 6.683594 15.949219 6.746094 15.902344 6.8125 15.855469 L 6.335938 18.199219 C 6.328125 18.230469 6.324219 18.261719 6.320312 18.292969 C 6.152344 18.992188 5.753906 19.613281 5.128906 20.003906 Z M 11.429688 21.285156 C 10.785156 21.6875 10.023438 21.847656 9.300781 21.6875 C 8.582031 21.527344 7.9375 21.125 7.539062 20.484375 C 7.136719 19.84375 6.976562 19.078125 7.136719 18.359375 L 7.660156 15.878906 C 8.144531 16.835938 9.023438 17.515625 10.105469 17.757812 C 10.292969 17.796875 10.480469 17.820312 10.667969 17.828125 C 10.734375 17.832031 10.800781 17.835938 10.867188 17.835938 C 11.550781 17.835938 12.230469 17.636719 12.914062 17.195312 C 12.992188 17.140625 13.070312 17.085938 13.144531 17.027344 L 12.632812 19.519531 C 12.472656 20.242188 12.070312 20.886719 11.429688 21.285156 Z M 18.929688 20.804688 C 18.769531 21.527344 18.367188 22.167969 17.726562 22.570312 C 17.085938 22.972656 16.324219 23.132812 15.601562 22.972656 C 14.878906 22.8125 14.238281 22.410156 13.835938 21.769531 C 13.5 21.230469 13.332031 20.609375 13.382812 19.996094 C 13.417969 19.878906 13.449219 19.761719 13.472656 19.640625 L 13.976562 17.195312 C 14.460938 18.136719 15.335938 18.84375 16.441406 19.078125 C 17.527344 19.28125 18.648438 19 19.453125 18.316406 Z M 18.929688 20.804688"/>
</svg>

<svg xmlns="http://www.w3.org/2000/svg" width="32" height="32" viewBox="0 0 24 24">
    <path d="M23.902.309a.362.362 0 0 0-.32-.164H10.586a.485.485 0 0 0-.106.011c-.03-.004-.062-.011-.093-.011h-6.54c-.199 0-.363.12-.402.28l-.48 2.329c-.012.062-.02.125-.031.187l-.93 4.504c-.02.082-.031.164-.043.242l-.899 4.418a.272.272 0 0 0-.023.075l-.96 4.734c-.204.961 0 1.926.519 2.727.523.804 1.324 1.363 2.285 1.523.242.043.484.082.722.082.723 0 1.407-.2 1.965-.601.332-.215.617-.477.856-.774.105.352.261.692.469 1.016a3.573 3.573 0 0 0 2.289 1.562c.238.04.48.082.722.082.68 0 1.364-.203 2.004-.601.313-.203.586-.45.817-.73a3.612 3.612 0 0 0 2.753 2.573c.243.04.48.082.723.082.68 0 1.363-.203 2.043-.644a3.556 3.556 0 0 0 1.567-2.285l.96-4.696a.423.423 0 0 0-.003-.171l.808-3.973a3.67 3.67 0 0 0 .16-.547l.961-4.695a.344.344 0 0 0 .008-.067l.918-4.547v-.039c.004-.035.004-.066.004-.097l.355-1.426c.04-.121 0-.242-.082-.36zM5.25 15.649c-.023.003-.047.011-.07.015l-.067.012c-.027.008-.058.011-.09.02l-.039.003c-.316.047-.644.04-.976-.027-.899-.168-1.602-.766-1.973-1.543a2.908 2.908 0 0 1-.195-1.79.403.403 0 0 0-.004-.167l.488-2.317a3.596 3.596 0 0 0 2.528 1.926c1.07.196 2.18-.074 2.976-.742l-.457 2.266a.401.401 0 0 0-.074.16l-.09.437a2.837 2.837 0 0 1-1.91 1.73c-.016.009-.031.013-.047.016zm15.406-7.2c-.437.274-.93.434-1.43.461a2.89 2.89 0 0 1-.656-.058c-1.375-.29-2.355-1.524-2.304-2.88.004-.019.004-.042.007-.062l.09-.469c.004-.02.004-.039.004-.058l.637-2.469c.02.043.043.094.074.152.027.059.055.114.086.168a3.181 3.181 0 0 0 2.168 1.688c.055.004.105.012.16.02.883.163 1.801-.005 2.567-.462.12-.043.199-.12.32-.203l-.48 2.407a2.8 2.8 0 0 1-1.243 1.765zm-8.226 8.106c-.64.398-1.403.558-2.125.398-1.332-.281-2.266-1.45-2.266-2.754.059-.16.106-.324.14-.496l.497-2.43a3.818 3.818 0 0 0 2.433 1.829c1.082.203 2.204-.079 3.008-.762l-.523 2.488a2.847 2.847 0 0 1-.739 1.395 2.76 2.76 0 0 1-.425.332zm2.129-6.5a2.872 2.872 0 0 1-1.496 1.96 2.759 2.759 0 0 1-1.754.204A2.837 2.837 0 0 1 9.043 9.46l.098-.488c.004-.024.007-.047.007-.07l.457-2.419a3.66 3.66 0 0 0 2.465 1.844c1.082.203 2.207-.078 3.008-.762zm1-4.696l-.063.329c-.469 1.277-1.828 2.093-3.226 1.8-1.391-.293-2.38-1.554-2.297-2.93l.05-.28v-.04l.516-2.57a3.662 3.662 0 0 0 2.496 1.93c.238.039.438.078.68.078.894 0 1.781-.34 2.48-.903zM9.297 3.9a.49.49 0 0 0-.035.097l-.067.34A2.7 2.7 0 0 1 8.06 5.844c-.641.398-1.403.558-2.125.398a2.877 2.877 0 0 1-1.696-1.086 2.771 2.771 0 0 1-.472-2.203l.324-1.61c.601.606 1.57 1.212 2.644 1.212.899 0 2.09-.332 2.993-.887zM4.602 6.585a3.89 3.89 0 0 0 1.171.5c1.082.2 2.207-.078 3.008-.762l-.523 2.489c-.16.718-.559 1.363-1.203 1.761-.453.285-.97.45-1.485.461-.183 0-.37-.02-.558-.058-1.528-.32-2.528-1.805-2.207-3.329A.48.48 0 0 0 2.8 7.48l.484-2.32c.3.586.758 1.078 1.317 1.426zm15.293 9.527c-.165.719-.563 1.364-1.207 1.762a2.92 2.92 0 0 1-1.485.46c-.183 0-.371-.019-.558-.058-1.43-.3-2.399-1.62-2.254-3.039.035-.105.062-.218.086-.328l.48-2.36c.043.079.102.153.16.274a3.573 3.573 0 0 0 2.29 1.563 3.69 3.69 0 0 0 2.671-.512c.031-.016.063-.031.094-.05.082-.052.16-.106.234-.165zm1-4.773a2.852 2.852 0 0 1-2.04 2.168l-.046.012c-.024.007-.047.011-.07.02l-.067.01a.614.614 0 0 1-.09.016c-.012.004-.027.004-.039.008a2.75 2.75 0 0 1-.977-.031 2.903 2.903 0 0 1-.878-.344c-.004 0-.008-.004-.012-.004l-.09-.058a4162.907 4162.907 0 0 0-.14-.098 2.574 2.574 0 0 1-.645-.7 2.924 2.924 0 0 1-.457-1.683l.066-.332c.012-.035.02-.07.031-.11l.47-2.433c.487.934 1.355 1.598 2.5 1.871 1.081.203 2.202-.078 3.007-.761l-.496 2.37c-.012.024-.02.052-.027.079zm1.953-9.387c-.012.024-.02.05-.028.078v.04a2.627 2.627 0 0 1-1.203 1.687c-.64.398-1.402.52-2.086.36-.722-.122-1.285-.563-1.644-1.243-.32-.563-.442-1.246-.36-1.926h5.535zM16.645.95c-.563 1.281-2.086 2.164-3.45 1.887-1.004-.203-1.808-.926-2.086-1.887zm-7.262 0c-.762.48-1.844.801-2.649.801-.68 0-1.402-.36-1.882-.8zM5.129 20.004c-.64.398-1.402.558-2.125.398-.723-.16-1.363-.558-1.766-1.203C.84 18.56.68 17.797.84 17.074l.52-2.488c.054.105.113.203.175.3l.024.036c0 .004.004.008.007.008.25.383.575.718.961.98.383.274.828.48 1.32.602.712.133 1.442.054 2.087-.207.234-.082.46-.188.68-.313.07-.043.132-.09.199-.137L6.335 18.2c-.008.031-.012.063-.016.094-.168.7-.566 1.32-1.191 1.71zm6.3 1.281c-.644.402-1.406.563-2.128.402-.719-.16-1.364-.562-1.762-1.203-.402-.64-.562-1.406-.402-2.125l.523-2.48c.485.957 1.363 1.637 2.445 1.879.188.039.375.062.563.07.066.004.133.008.2.008.683 0 1.362-.2 2.046-.64.078-.055.156-.11.23-.169l-.511 2.493c-.16.722-.563 1.367-1.203 1.765zm7.5-.48c-.16.722-.562 1.363-1.202 1.765-.641.403-1.403.563-2.125.403-.723-.16-1.364-.563-1.766-1.203a2.915 2.915 0 0 1-.453-1.774 3.64 3.64 0 0 0 .09-.355l.504-2.446a3.59 3.59 0 0 0 2.464 1.883c1.086.203 2.207-.078 3.012-.762zm0 0"/>
</svg>
